assets/img/braze_icons/log-out-02.svg

<svg fill="none" height="24" viewBox="0 0 24 24" width="24" xmlns="http://www.w3.org/2000/svg"><g fill="#801ed7"><path d="m9.51764 4.06812c-.22228-.05956-.52329-.06815-1.51764-.06815h-.5c-.71259 0-1.19696.00055-1.57339.02623-.36746.02507-.55848.07072-.69198.12602-.49005.20298-.8794.59233-1.08239 1.08239-.05529.1335-.10094.32451-.12601.69197-.02569.37644-.02623.8608-.02623 1.57339v9.00003c0 .7126.00054 1.1969.02623 1.5734.02507.3674.07071.5584.12601.6919.20299.4901.59234.8794 1.08239 1.0824.1335.0553.32452.101.69197.126.37644.0257.86081.0263 1.5734.0263h.5c.99435 0 1.29536-.0086 1.51764-.0682.69016-.1849 1.22926-.724 1.41426-1.4142.0595-.2223.0681-.5233.0681-1.5176 0-.5523.4477-1 1-1s1 .4477 1 1l.0001.1375c.0004.7954.0007 1.3861-.1364 1.8978-.3699 1.3803-1.4481 2.4585-2.8284 2.8284-.51167.1371-1.10234.1368-1.89772.1363h-.67185c-.66979 0-1.22266 0-1.67527-.0309-.46928-.032-.90338-.1005-1.32119-.2736-.98012-.406-1.75881-1.1847-2.16479-2.1648-.17306-.4178-.2416-.8519-.27361-1.3212-.03089-.4526-.03088-1.0055-.03087-1.6752v-9.06859c-.00001-.66979-.00002-1.22267.03087-1.67527.03201-.46929.10055-.90339.27361-1.3212.40598-.98011 1.18468-1.75881 2.16479-2.16478.41781-.17307.85191-.2416 1.32119-.27362.45261-.03088 1.00548-.03087 1.67527-.03087l.67185-.00004c.79539-.00044 1.38605-.00076 1.89772.13634 1.3803.36987 2.4585 1.44806 2.8284 2.82843.1371.51165.1368 1.1023.1364 1.89768l-.0001.13759c0 .55229-.4477 1-1 1s-1-.44771-1-1c0-.99435-.0086-1.29536-.0681-1.51763-.185-.69019-.7241-1.22928-1.41426-1.41422z"/><path d="m15.2929 6.29289c.3905-.39052 1.0237-.39052 1.4142 0l5 5.00001c.3905.3905.3905 1.0237 0 1.4142l-5 5c-.3905.3905-1.0237.3905-1.4142 0s-.3905-1.0237 0-1.4142l3.2929-3.2929h-9.5858c-.55228 0-1-.4477-1-1s.44772-1 1-1h9.5858l-3.2929-3.29289c-.3905-.39053-.3905-1.02369 0-1.41422z"/></g></svg>

<svg width="24" height="24" viewBox="0 0 24 24" fill="none" xmlns="http://www.w3.org/2000/svg">
<path d="M9.51764 4.06812C9.29536 4.00856 8.99435 3.99997 8 3.99997H7.5C6.78741 3.99997 6.30304 4.00052 5.92661 4.0262C5.55915 4.05127 5.36813 4.09692 5.23463 4.15222C4.74458 4.3552 4.35523 4.74455 4.15224 5.23461C4.09695 5.36811 4.0513 5.55912 4.02623 5.92658C4.00054 6.30302 4 6.78738 4 7.49997V16.5C4 17.2126 4.00054 17.6969 4.02623 18.0734C4.0513 18.4408 4.09694 18.6318 4.15224 18.7653C4.35523 19.2554 4.74458 19.6447 5.23463 19.8477C5.36813 19.903 5.55915 19.9487 5.9266 19.9737C6.30304 19.9994 6.78741 20 7.5 20H8C8.99435 20 9.29536 19.9914 9.51764 19.9318C10.2078 19.7469 10.7469 19.2078 10.9319 18.5176C10.9914 18.2953 11 17.9943 11 17C11 16.4477 11.4477 16 12 16C12.5523 16 13 16.4477 13 17L13.0001 17.1375C13.0005 17.9329 13.0008 18.5236 12.8637 19.0353C12.4938 20.4156 11.4156 21.4938 10.0353 21.8637C9.52363 22.0008 8.93296 22.0005 8.13758 22L7.46573 22C6.79594 22 6.24307 22 5.79046 21.9691C5.32118 21.9371 4.88708 21.8686 4.46927 21.6955C3.48915 21.2895 2.71046 20.5108 2.30448 19.5307C2.13142 19.1129 2.06288 18.6788 2.03087 18.2095C1.99998 17.7569 1.99999 17.204 2 16.5343V7.46571C1.99999 6.79592 1.99998 6.24304 2.03087 5.79044C2.06288 5.32115 2.13142 4.88705 2.30448 4.46924C2.71046 3.48913 3.48916 2.71043 4.46927 2.30446C4.88708 2.13139 5.32118 2.06286 5.79046 2.03084C6.24307 1.99996 6.79594 1.99997 7.46573 1.99997L8.13758 1.99993C8.93297 1.99949 9.52363 1.99917 10.0353 2.13627C11.4156 2.50614 12.4938 3.58433 12.8637 4.9647C13.0008 5.47635 13.0005 6.067 13.0001 6.86238L13 6.99997C13 7.55226 12.5523 7.99997 12 7.99997C11.4477 7.99997 11 7.55226 11 6.99997C11 6.00562 10.9914 5.70461 10.9319 5.48234C10.7469 4.79215 10.2078 4.25306 9.51764 4.06812Z" fill="#801ED7"/>
<path d="M15.2929 6.29289C15.6834 5.90237 16.3166 5.90237 16.7071 6.29289L21.7071 11.2929C22.0976 11.6834 22.0976 12.3166 21.7071 12.7071L16.7071 17.7071C16.3166 18.0976 15.6834 18.0976 15.2929 17.7071C14.9024 17.3166 14.9024 16.6834 15.2929 16.2929L18.5858 13H9C8.44772 13 8 12.5523 8 12C8 11.4477 8.44772 11 9 11H18.5858L15.2929 7.70711C14.9024 7.31658 14.9024 6.68342 15.2929 6.29289Z" fill="#801ED7"/>
</svg>
